X:1
T:Wanderlied
T:Wanderlied
T:Karl maria von Weber
C:Karl maria von Weber
%%score [ 1 2 3 4 ]
L:1/8
Q:1/4=76
M:4/4
K:Bmin
V:1 treble-8 nm="Tenor I"
V:2 treble-8 nm="Tenor II"
V:3 bass nm="Bass I"
V:4 bass nm="Bass II"
V:1
"^1.\n2.\n" d/!f! | d4 z3/2 d/ d>d |!mf!!>(! e2!>)! d2 z2 d2 |!<(! c2!<)!!>(! f2 f^e ^d!>)!e | %4
w: Du|Schwert an mei- ner|Lin- ken, Was|soll dein heit'- * res *|
w: ||||
w: Mich|trägt ein wack'- rer|Rei- ter, Drum|blink ich auch * so *|
w: ||||
w: ||||
w: ||||
!mf! !fermata!f4 !fermata!F2 z2 |!f! f2 f>f e>e e2 | d2 d>d c>c c!f! z/ B/ | %7
w: Blin- ken?|Schaust mich so freund- lich an.|Hab mei- ne Freu- de d'ran. Hur-|
w: |||
w: hei- ter,|Bin frei- en Man- nes Wehr;|Das freut dem Schwer- te sehr. *|
w: |||
w: |||
w: |||
"^cresc." !^!B3 z/ c/ !^!c2!ff! z3/2 f/ | !^!!fermata!f6 z3/2 ||!f!"^3." d/ | %10
w: ra! Hur- ra! Hur-|||
w: |ra!||
w: |||
w: ||Ja,|
w: ||Dir|
w: ||Zur|
 !>!d7/2 d/ !>!d7/2 d/ |!mf!!>(! e2!>)! d2 z2 d2 |!mf!!<(! c2!<)! f2 f^e ^de | %13
w: |||
w: |||
w: |||
w: gu- tes Schwert, frei|bin ich Und|lie- be dich * her- *|
w: hab ich's ja er-|ge- ben, Mein|lich- tes Ei- * sen- *|
w: Braut- nachts- Mor- gen-|rö- te Ruft|fes- tlich die * Trom- *|
 !fermata!f4 !fermata!F2 z2 |!f! f2 f>f e>e e2 | d2 d>d!>(! c>c c!>)! z/!f! !wedge!B/ | %16
w: |||
w: |||
w: |||
w: zin- nig,|Als wärst du mir ge- traut|Als ei- ne lie- be Braut. Hur-|
w: le- ben.|Ach, wä- ren wir ge- traut!|Wann holst du dei- ne Braut? *|
w: pe- te;|Wenn die Ka- no- nen schrein,|Hol ich das Lieb- chen ein. *|
 !^!B3"^cresc." z/ !^!c/ !^!c2 z!ff! z/ !^!f/ | !^!!fermata!f6 z3/2 |] %18
w: ||
w: ||
w: ||
w: ra! Hur- ra! Hur-|ra!|
w: ||
w: ||
V:2
"^1.\n2.\n" B/!f! | B4 z3/2 B/ B>B |!mf!!>(! c2!>)! B2 z2 B2 |!<(! ^A2!<)! A2!>(! B2 B2!>)! | %4
w: Du|Schwert an mei- ner|Lin- ken, Was|soll dein heit'- res|
w: ||||
w: Mich|trägt ein wack'- rer|Rei- ter, Drum|blink ich auch so|
w: ||||
w: ||||
w: ||||
!mf! !fermata!^A4 !fermata!A2 z2 |!f! d2 d>d c>c c2 | B2 B>B ^A>A A!f! z/ B/ | %7
w: Blin- ken?|Schaust mich so freund- lich an.|Hab mei- ne Freu- de d'ran. Hur-|
w: |||
w: hei- ter,|Bin frei- en Man- nes Wehr;|Das freut dem Schwer- te sehr. *|
w: |||
w: |||
w: |||
"^cresc." !^!B3 z/ ^A/ !^!A2!ff! z3/2 ^d/ | !^!!fermata!^d6 z3/2 ||!f!"^3.""^4.""^5." B/ | %10
w: ra! Hur- ra! Hur-|||
w: |ra!||
w: |||
w: ||Ja,|
w: ||Dir|
w: ||Zur|
 !>!B7/2 B/ !>!B7/2 B/ |!mf!!>(! c2 B2!>)! z2 B2 |!mf!!<(! ^A2!<)! A2 B2 B2 | %13
w: |||
w: |||
w: |||
w: gu- tes Schwert, frei|bin ich Und|lie- be dich her-|
w: hab ich's ja er-|ge- ben, Mein|lich- tes Ei- sen-|
w: Braut- nachts- Mor- gen-|rö- te Ruft|fes- tlich die Trom-|
 !fermata!^A4 !fermata!A2 z2 |!f! d2 d>d c>c c2 |"^," B2 B>B!>(! ^A>A A!>)! z/!f! !wedge!B/ | %16
w: |||
w: |||
w: |||
w: zin- nig,|Als wärst du mir ge- traut|Als ei- ne lie- be Braut. Hur-|
w: le- ben.|Ach, wä- ren wir ge- traut!|Wann holst du dei- ne Braut? *|
w: pe- te;|Wenn die Ka- no- nen schrein,|Hol ich das Lieb- chen ein. *|
 !^!B3"^cresc." z/ !^!^A/ !^!A2 z3/2!ff! !^!^d/ | !^!!fermata!^d6 z3/2 |] %18
w: ||
w: ||
w: ||
w: ra! Hur- ra! Hur-|ra!|
w: ||
w: ||
V:3
"^1.\n2.\n" F,/!f! | F,4 z3/2 F,/ F,>F, |!mf!!>(! F,2!>)! F,2 z2 F,2 | %3
w: Du|Schwert an mei- ner|Lin- ken, Was|
w: |||
w: Mich|trägt ein wack'- rer|Rei- ter, Drum|
w: |||
w: |||
w: |||
!<(! F,2!<)! F,2!>(! ^G,2 G,2!>)! |!mf! !fermata!F,4 !fermata!C,2 z2 |!f! A,2 A,>A, A,>A, A,2 | %6
w: soll dein heit'- res|Blin- ken?|Schaust mich so freund- lich an.|
w: |||
w: blink ich auch so|hei- ter,|Bin frei- en Man- nes Wehr;|
w: |||
w: |||
w: |||
"^," F,2 F,>F, F,>F, F,!f! z/ B,/ |"^cresc." !^!B,3 z/ F,/ !^!F,2!ff! z3/2 F,/ | %8
w: Hab mei- ne Freu- de d'ran. Hur-|ra! Hur- ra! Hur-|
w: ||
w: Das freut dem Schwer- te sehr. *||
w: ||
w: ||
w: ||
 !^!!fermata!F,6 z3/2 ||!f!"^3.""^4.""^5." F,/ | !>!F,7/2 F,/ !>!F,7/2 F,/ | %11
w: |||
w: ra!|||
w: |||
w: |Ja,|gu- tes Schwert, frei|
w: |Dir|hab ich's ja er-|
w: |Zur|Braut- nachts- Mor- gen-|
!mf!!>(! F,2 F,2!>)! z2 F,2 |!mf!!<(! F,2!<)! F,2 ^G,2 G,2 | !fermata!F,4 !fermata!C,2 z2 | %14
w: |||
w: |||
w: |||
w: bin ich Und|lie- be dich her-|zin- nig,|
w: ge- ben, Mein|lich- tes Ei- sen-|le- ben.|
w: rö- te Ruft|fes- tlich die Trom-|pe- te;|
!f! A,2 A,>A, A,>A, A,2 |"^," F,2 F,>F,!>(! F,>F, F,!>)! z/!f! !wedge!B,/ | %16
w: ||
w: ||
w: ||
w: Als wärst du mir ge- traut|Als ei- ne lie- be Braut. Hur-|
w: Ach, wä- ren wir ge- traut!|Wann holst du dei- ne Braut? *|
w: Wenn die Ka- no- nen schrein,|Hol ich das Lieb- chen ein. *|
 !^!B,3"^cresc." z/ !^!F,/ !^!F,2 z3/2!ff! !^!F,/ | !^!!fermata!F,6 z3/2 |] %18
w: ||
w: ||
w: ||
w: ra! Hur- ra! Hur-|ra!|
w: ||
w: ||
V:4
"^1.\n2.\n" B,,/!f! |"^," B,,4 z3/2 B,,/ B,,>B,, |!mf!!>(! ^A,,2!>)! B,,2 z2 B,,2 | %3
w: Du|Schwert an mei- ner|Lin- ken, Was|
w: |||
w: Mich|trägt ein wack'- rer|Rei- ter, Drum|
w: |||
w: |||
w: |||
!<(! C,2!<)! C,2!>(! C,2 C,2!>)! |!mf! !fermata!F,,4 !fermata!F,,2 z2 |!f! D,>E, F,>G, A,>A, A,,2 | %6
w: soll dein heit'- res|Blin- ken?|Schaust * mich so freund- lich an.|
w: |||
w: blink ich auch so|hei- ter,|Bin * frei- en Man- nes Wehr;|
w: |||
w: |||
w: |||
"^,""^," B,,>C, D,>E, F,>F,, F,,!f! z/ B,/ |"^cresc." !^!B,3 z/ F,/ !^!F,2!ff! z3/2 B,,/ | %8
w: Hab * mei- ne Freu- de d'ran. Hur-|ra! Hur- ra! Hur-|
w: ||
w: Das * freut dem Schwer- te sehr. *||
w: ||
w: ||
w: ||
 !^!!fermata!B,,6 z3/2 ||!f!"^4.""^5." B,,/ | !>!B,,7/2 B,,/ !>!B,,7/2 B,,/ | %11
w: |||
w: ra!|||
w: |||
w: |Ja,|gu- tes Schwert, frei|
w: |Dir|hab ich's ja er-|
w: |Zur|Braut- nachts- Mor- gen-|
!mf!!>(! ^A,,2 B,,2!>)! z2 B,,2 |!mf!!<(! C,2!<)! C,2 C,2 C,2 | !fermata!F,,4 !fermata!F,,2 z2 | %14
w: |||
w: |||
w: |||
w: bin ich Und|lie- be dich her-|zin- nig,|
w: ge- ben, Mein|lich- tes Ei- sen-|le- ben.|
w: rö- te Ruft|fes- tlich die Trom-|pe- te;|
!f! D,>E, F,>G, A,>A, A,,2 |"^," B,,>C, D,>E,!>(! F,>F,, F,,!>)! z/!f! !wedge!B,/ | %16
w: ||
w: ||
w: ||
w: Als * wärst du mir ge- traut|Als * ei- ne lie- be Braut. Hur-|
w: Ach, * wä- ren wir ge- traut!|Wann * holst du dei- ne Braut? *|
w: Wenn * die Ka- no- nen schrein,|Hol * ich das Lieb- chen ein. *|
 !^!B,3"^cresc." z/ !^!F,/ !^!F,2 z3/2!ff! !^!B,,/ | !^!!fermata!B,,6 z3/2 |] %18
w: ||
w: ||
w: ||
w: ra! Hur- ra! Hur-|ra!|
w: ||
w: ||

